browser/images/dark/lc_controlcodes.svg

<svg viewBox="0 0 24 24" xmlns="http://www.w3.org/2000/svg"><path d="m10 2c-3.3137085 0-6 2.6862915-6 6 0 3.313708 2.6862915 6 6 6h1v8h1v-19h2v19h1v-19h4v-1zm0 1h1v10h-1c-2.7614237 0-5-2.238576-5-5 0-2.7614237 2.2385763-5 5-5z" fill="#fafafa"/><path d="m10 3c-2.7614237 0-5 2.2385763-5 5 0 2.761424 2.2385763 5 5 5h1v-10z" fill="#797774"/></svg>

<svg viewBox="0 0 24 24" xmlns="http://www.w3.org/2000/svg">
  <path
     d="M 10,2 C 6.6862915,2 4,4.6862915 4,8 c 0,3.313708 2.6862915,6 6,6 h 1 v 8 h 1 V 3 h 2 v 19 h 1 V 3 h 1 3 V 2 Z m 0,1 h 1 V 13 H 10 C 7.238576,13 5,10.761424 5,8 5,5.2385763 7.238576,3 10,3 Z"
     fill="#fafafa" />
</svg>
